public/mascots/dropout/cat-32x32.svg

<svg xmlns="http://www.w3.org/2000/svg" width="32" height="32" viewBox="0 0 32 32"><defs><linearGradient id="b" x1="0%" x2="100%" y1="0%" y2="100%"><stop offset="0%" style="stop-color:#2d2d2d"/><stop offset="100%" style="stop-color:#1a1a1a"/></linearGradient><linearGradient id="c" x1="0%" x2="0%" y1="0%" y2="100%"><stop offset="0%" style="stop-color:#fff"/><stop offset="100%" style="stop-color:#f0f0f0"/></linearGradient><linearGradient id="a" x1="0%" x2="100%" y1="0%" y2="100%"><stop offset="0%" style="stop-color:#ff69b4"/><stop offset="100%" style="stop-color:#f72585"/></linearGradient><linearGradient id="d" x1="0%" x2="0%" y1="0%" y2="100%"><stop offset="0%" style="stop-color:#00e5ff"/><stop offset="100%" style="stop-color:#00b4d8"/></linearGradient></defs><ellipse cx="16" cy="30" opacity=".15" rx="8" ry="1.5"/><g fill="none" stroke-linecap="round"><path stroke="#1a1a1a" stroke-width="2.5" d="M6 22q-2-4 0-8t6 0"/><path stroke="#2d2d2d" stroke-width="1.5" d="M6 14q-1-2 0-4"/></g><ellipse cx="16" cy="22" fill="url(#a)" rx="9" ry="7"/><ellipse cx="16" cy="23" fill="#ffb6c1" opacity=".6" rx="5" ry="4"/><path stroke="#d41675" stroke-dasharray="2,1" stroke-width=".8" d="M16 16v10"/><circle cx="16" cy="15.5" r="1.2" fill="#ff1493"/><ellipse cx="9" cy="20" fill="url(#a)" rx="2.5" ry="4"/><circle cx="8" cy="23" r="1.5" fill="#ffb6c1"/><ellipse cx="23" cy="20" fill="url(#a)" rx="2.5" ry="4"/><circle cx="24" cy="23" r="1.5" fill="#ffb6c1"/><ellipse cx="11" cy="8" fill="url(#a)" rx="3" ry="6" transform="rotate(-15 11 8)"/><ellipse cx="11" cy="8" fill="#ffb6c1" rx="1.5" ry="3.5" transform="rotate(-15 11 8)"/><ellipse cx="21" cy="8" fill="url(#a)" rx="3" ry="6" transform="rotate(15 21 8)"/><ellipse cx="21" cy="8" fill="#ffb6c1" rx="1.5" ry="3.5" transform="rotate(15 21 8)"/><ellipse cx="16" cy="13" fill="url(#b)" rx="8" ry="7"/><ellipse cx="16" cy="16" fill="url(#c)" rx="4" ry="3"/><path fill="none" stroke="#6b7280" stroke-width=".8" d="M10 10q2-2 4 0M18 10q2-2 4 0" opacity=".6"/><path fill="url(#b)" d="M10 8 8 4l4 3Z"/><path fill="url(#b)" d="m22 8 2-4-4 3Z"/><ellipse cx="13" cy="12" fill="url(#d)" rx="2" ry="2.5"/><ellipse cx="13.3" cy="11.5" fill="#fff" rx=".8" ry="1"/><circle cx="13.5" cy="12.5" r=".4" opacity=".3"/><ellipse cx="19" cy="12" fill="url(#d)" rx="2" ry="2.5"/><ellipse cx="18.7" cy="11.5" fill="#fff" rx=".8" ry="1"/><circle cx="18.5" cy="12.5" r=".4" opacity=".3"/><path fill="none" stroke="#1a1a1a" stroke-linecap="round" stroke-width=".6" d="M11 9q2-1 3 .5M18 9.5Q19 8 21 9"/><ellipse cx="16" cy="15" fill="#ff69b4" rx="1" ry=".7"/><path fill="none" stroke="#1a1a1a" stroke-linecap="round" stroke-width=".8" d="M14 16.5q2 1.5 4-.5"/><path fill="none" stroke="#1a1a1a" stroke-linecap="round" stroke-width=".6" d="m17.5 16.2.5-.2.3.5"/><path stroke="#fff" stroke-width=".3" d="m10 15-3-.5M10 16H7M22 15l3-.5M22 16h3" opacity=".6"/><ellipse cx="8" cy="23.5" fill="#6b7280" opacity=".5" rx=".8" ry=".5"/><ellipse cx="24" cy="23.5" fill="#6b7280" opacity=".5" rx=".8" ry=".5"/></svg>

<svg xmlns="http://www.w3.org/2000/svg" viewBox="0 0 32 32" width="32" height="32">
  <!-- Cat in Bunny Onesie - Dropout Style 32x32 -->
  <defs>
    <linearGradient id="catBlack32" x1="0%" y1="0%" x2="100%" y2="100%">
      <stop offset="0%" style="stop-color:#2D2D2D"/>
      <stop offset="100%" style="stop-color:#1A1A1A"/>
    </linearGradient>
    <linearGradient id="catWhite32" x1="0%" y1="0%" x2="0%" y2="100%">
      <stop offset="0%" style="stop-color:#FFFFFF"/>
      <stop offset="100%" style="stop-color:#F0F0F0"/>
    </linearGradient>
    <linearGradient id="onesiePink32" x1="0%" y1="0%" x2="100%" y2="100%">
      <stop offset="0%" style="stop-color:#FF69B4"/>
      <stop offset="100%" style="stop-color:#F72585"/>
    </linearGradient>
    <linearGradient id="eyeBlue32" x1="0%" y1="0%" x2="0%" y2="100%">
      <stop offset="0%" style="stop-color:#00E5FF"/>
      <stop offset="100%" style="stop-color:#00B4D8"/>
    </linearGradient>
  </defs>
  
  <!-- Shadow -->
  <ellipse cx="16" cy="30" rx="8" ry="1.5" fill="#000" opacity="0.15"/>
  
  <!-- Tail peeking from onesie -->
  <g className="tail">
    <path d="M6 22 Q4 18 6 14 Q8 10 12 14" fill="none" stroke="#1A1A1A" stroke-width="2.5" stroke-linecap="round"/>
    <path d="M6 14 Q5 12 6 10" fill="none" stroke="#2D2D2D" stroke-width="1.5" stroke-linecap="round"/>
  </g>
  
  <!-- Onesie Body -->
  <g className="onesie">
    <ellipse cx="16" cy="22" rx="9" ry="7" fill="url(#onesiePink32)"/>
    <!-- Belly patch -->
    <ellipse cx="16" cy="23" rx="5" ry="4" fill="#FFB6C1" opacity="0.6"/>
    <!-- Zipper -->
    <line x1="16" y1="16" x2="16" y2="26" stroke="#D41675" stroke-width="0.8" stroke-dasharray="2,1"/>
    <circle cx="16" cy="15.5" r="1.2" fill="#FF1493"/>
  </g>
  
  <!-- Onesie Arms -->
  <g className="arm-left">
    <ellipse cx="9" cy="20" rx="2.5" ry="4" fill="url(#onesiePink32)"/>
    <circle cx="8" cy="23" r="1.5" fill="#FFB6C1"/>
  </g>
  <g className="arm-right">
    <ellipse cx="23" cy="20" rx="2.5" ry="4" fill="url(#onesiePink32)"/>
    <circle cx="24" cy="23" r="1.5" fill="#FFB6C1"/>
  </g>
  
  <!-- Bunny Ears (hood) -->
  <g className="bunny-ears">
    <ellipse cx="11" cy="8" rx="3" ry="6" fill="url(#onesiePink32)" transform="rotate(-15 11 8)"/>
    <ellipse cx="11" cy="8" rx="1.5" ry="3.5" fill="#FFB6C1" transform="rotate(-15 11 8)"/>
    <ellipse cx="21" cy="8" rx="3" ry="6" fill="url(#onesiePink32)" transform="rotate(15 21 8)"/>
    <ellipse cx="21" cy="8" rx="1.5" ry="3.5" fill="#FFB6C1" transform="rotate(15 21 8)"/>
  </g>
  
  <!-- Cat Head -->
  <g className="head">
    <!-- Face base -->
    <ellipse cx="16" cy="13" rx="8" ry="7" fill="url(#catBlack32)"/>
    <!-- White muzzle/chest patch -->
    <ellipse cx="16" cy="16" rx="4" ry="3" fill="url(#catWhite32)"/>
    <!-- Grey markings -->
    <path d="M10 10 Q12 8 14 10" fill="none" stroke="#6B7280" stroke-width="0.8" opacity="0.6"/>
    <path d="M18 10 Q20 8 22 10" fill="none" stroke="#6B7280" stroke-width="0.8" opacity="0.6"/>
    
    <!-- Cat Ears (peeking from hood) -->
    <path d="M10 8 L8 4 L12 7Z" fill="url(#catBlack32)"/>
    <path d="M22 8 L24 4 L20 7Z" fill="url(#catBlack32)"/>
    
    <!-- Eyes (bright blue, cheeky) -->
    <g className="eye-left">
      <ellipse cx="13" cy="12" rx="2" ry="2.5" fill="url(#eyeBlue32)"/>
      <ellipse cx="13.3" cy="11.5" rx="0.8" ry="1" fill="#FFF"/>
      <circle cx="13.5" cy="12.5" r="0.4" fill="#000" opacity="0.3"/>
    </g>
    <g className="eye-right">
      <ellipse cx="19" cy="12" rx="2" ry="2.5" fill="url(#eyeBlue32)"/>
      <ellipse cx="18.7" cy="11.5" rx="0.8" ry="1" fill="#FFF"/>
      <circle cx="18.5" cy="12.5" r="0.4" fill="#000" opacity="0.3"/>
    </g>
    
    <!-- Cheeky expression eyebrows -->
    <path d="M11 9 Q13 8 14 9.5" fill="none" stroke="#1A1A1A" stroke-width="0.6" stroke-linecap="round"/>
    <path d="M18 9.5 Q19 8 21 9" fill="none" stroke="#1A1A1A" stroke-width="0.6" stroke-linecap="round"/>
    
    <!-- Nose -->
    <ellipse cx="16" cy="15" rx="1" ry="0.7" fill="#FF69B4"/>
    
    <!-- Cheeky smile -->
    <path d="M14 16.5 Q16 18 18 16" fill="none" stroke="#1A1A1A" stroke-width="0.8" stroke-linecap="round"/>
    <path d="M17.5 16.2 L18 16 L18.3 16.5" fill="none" stroke="#1A1A1A" stroke-width="0.6" stroke-linecap="round"/>
    
    <!-- Whiskers -->
    <line x1="10" y1="15" x2="7" y2="14.5" stroke="#FFF" stroke-width="0.3" opacity="0.6"/>
    <line x1="10" y1="16" x2="7" y2="16" stroke="#FFF" stroke-width="0.3" opacity="0.6"/>
    <line x1="22" y1="15" x2="25" y2="14.5" stroke="#FFF" stroke-width="0.3" opacity="0.6"/>
    <line x1="22" y1="16" x2="25" y2="16" stroke="#FFF" stroke-width="0.3" opacity="0.6"/>
  </g>
  
  <!-- Paw pads (grey) -->
  <ellipse cx="8" cy="23.5" rx="0.8" ry="0.5" fill="#6B7280" opacity="0.5"/>
  <ellipse cx="24" cy="23.5" rx="0.8" ry="0.5" fill="#6B7280" opacity="0.5"/>
</svg>
